X:155
T:Reel 155
M:4/4
K:Dmaj
L:1/8
A2|d2fd ceAc|dAfd cgec|d2fd ceAg|fdec d2AA|d2fd ceAc|dAfd edBc|defd cAAG|FGEF D2|Bc|dfed cAAc|dfed cAAc|defd cdec|dfed cABc|dced cAAc|defd cdec|dfec dBAG|FGEF D2|
